X:0505
T:The Royal Scots March.
M:C|
L:1/8
Q:1/2=60 "Slow"
I: :: ::
Z:Jack Campin * www.campin.me.uk * 2009
K:G
(d/e/f) |g3 d B2B/c/d|G2G>G G2    D2|GDGB        AcB>A|G2G>G G2A2|
         B2AG c2BA   |cBAG  A/B/c BA|BGcA        BdcB |A2A>A A2 ::
d/e/f/g/|a3 f defg   |a2A>A A2    B2|cd/c/ Bc/B/ A2G2 |FGAF  DcBA|
         gdBd gbag   |afdf  ac'ba   |BGcA        B2A2 |G2g>g g2 :|

